resources/svg/calendar-no-access-o.svg

<svg xmlns="http://www.w3.org/2000/svg" viewBox="0 0 15 15" fill="none"><path d="M3.5 0V5M11.5 0V5M9.5 6.5L5.5 10.5M1.5 2.5H13.5C14.0523 2.5 14.5 2.94772 14.5 3.5V13.5C14.5 14.0523 14.0523 14.5 13.5 14.5H1.5C0.947716 14.5 0.5 14.0523 0.5 13.5V3.5C0.5 2.94772 0.947715 2.5 1.5 2.5ZM7.5 11.5C5.84315 11.5 4.5 10.1569 4.5 8.5C4.5 6.84315 5.84315 5.5 7.5 5.5C9.15685 5.5 10.5 6.84315 10.5 8.5C10.5 10.1569 9.15685 11.5 7.5 11.5Z" stroke="black"/></svg>

<svg xmlns="http://www.w3.org/2000/svg" viewBox="0 0 15 15" fill="none"><path d="M3.5 0v5m8-5v5m-2 1.5l-4 4m-4-8h12a1 1 0 011 1v10a1 1 0 01-1 1h-12a1 1 0 01-1-1v-10a1 1 0 011-1zm6 9a3 3 0 110-6 3 3 0 010 6z" stroke="currentColor"/></svg>
